svg/key_change.svg

<svg xmlns="http://www.w3.org/2000/svg" viewBox="0 0 24 24"><path d="M6.5 2c1.96 0 3.63 1.25 4.24 3H22v3h-4v3h-3V8h-4.26c-.61 1.75-2.28 3-4.24 3C4 11 2 9 2 6.5S4 2 6.5 2m0 3A1.5 1.5 0 0 0 5 6.5 1.5 1.5 0 0 0 6.5 8 1.5 1.5 0 0 0 8 6.5 1.5 1.5 0 0 0 6.5 5m0 8c1.96 0 3.63 1.25 4.24 3H22v3h-2v3h-2v-3h-2v3h-3v-3h-2.26c-.61 1.75-2.28 3-4.24 3C4 22 2 20 2 17.5S4 13 6.5 13m0 3A1.5 1.5 0 0 0 5 17.5 1.5 1.5 0 0 0 6.5 19 1.5 1.5 0 0 0 8 17.5 1.5 1.5 0 0 0 6.5 16"/></svg>

<?xml version="1.0" encoding="UTF-8"?><!DOCTYPE svg PUBLIC "-//W3C//DTD SVG 1.1//EN" "http://www.w3.org/Graphics/SVG/1.1/DTD/svg11.dtd"><svg xmlns="http://www.w3.org/2000/svg" xmlns:xlink="http://www.w3.org/1999/xlink" version="1.1" id="mdi-key-change" width="24" height="24" viewBox="0 0 24 24"><path d="M6.5,2C8.46,2 10.13,3.25 10.74,5H22V8H18V11H15V8H10.74C10.13,9.75 8.46,11 6.5,11C4,11 2,9 2,6.5C2,4 4,2 6.5,2M6.5,5A1.5,1.5 0 0,0 5,6.5A1.5,1.5 0 0,0 6.5,8A1.5,1.5 0 0,0 8,6.5A1.5,1.5 0 0,0 6.5,5M6.5,13C8.46,13 10.13,14.25 10.74,16H22V19H20V22H18V19H16V22H13V19H10.74C10.13,20.75 8.46,22 6.5,22C4,22 2,20 2,17.5C2,15 4,13 6.5,13M6.5,16A1.5,1.5 0 0,0 5,17.5A1.5,1.5 0 0,0 6.5,19A1.5,1.5 0 0,0 8,17.5A1.5,1.5 0 0,0 6.5,16Z" /></svg>
